icon/pk/dashboard-one.svg

<svg viewBox="0 0 49 48" fill="none" xmlns="http://www.w3.org/2000/svg" height="1em" width="1em">
  <path d="M24.7778 7C13.7321 7 4.77783 15.9543 4.77783 27C4.77783 32.2301 6.49127 37.4362 9.77783 41H39.7778C43.0644 37.4362 44.7778 32.2301 44.7778 27C44.7778 15.9543 35.8235 7 24.7778 7Z" stroke="black" stroke-width="4" stroke-linecap="round" stroke-linejoin="round"/>
  <circle cx="24.7778" cy="30" r="4" fill="#2F88FF" stroke="black" stroke-width="4" stroke-linecap="round" stroke-linejoin="round"/>
  <path d="M24.7778 20V26" stroke="black" stroke-width="4" stroke-linecap="round" stroke-linejoin="round"/>
  <path d="M24.7778 12V14" stroke="black" stroke-width="4" stroke-linecap="round" stroke-linejoin="round"/>
  <path d="M9.77783 28H11.7778" stroke="black" stroke-width="4" stroke-linecap="round" stroke-linejoin="round"/>
  <path d="M13.7778 18L15.192 19.4142" stroke="black" stroke-width="4" stroke-linecap="round" stroke-linejoin="round"/>
  <path d="M37.7778 28H39.7778" stroke="black" stroke-width="4" stroke-linecap="round" stroke-linejoin="round"/>
  <path d="M34.7778 19.4141L36.192 17.9998" stroke="black" stroke-width="4" stroke-linecap="round" stroke-linejoin="round"/>
</svg>

<svg width="49" height="48" fill="none" xmlns="http://www.w3.org/2000/svg"><path d="M24.778 7c-11.046 0-20 8.954-20 20 0 5.23 1.713 10.436 5 14h30c3.286-3.564 5-8.77 5-14 0-11.046-8.954-20-20-20Z" stroke="#000" stroke-width="4" stroke-linecap="round" stroke-linejoin="round"/><circle cx="24.778" cy="30" r="4" fill="#2F88FF" stroke="#000" stroke-width="4" stroke-linecap="round" stroke-linejoin="round"/><path d="M24.778 20v6M24.778 12v2M9.778 28h2M13.778 18l1.414 1.414M37.778 28h2M34.778 19.414 36.192 18" stroke="#000" stroke-width="4" stroke-linecap="round" stroke-linejoin="round"/></svg>
